public/favicon.svg

<svg fill="none" xmlns="http://www.w3.org/2000/svg" viewBox="0 0 24 24">
  <style>
    .fg {
      fill: #fff;
    }
    .bg {
      fill: #000;
    }
    @media (prefers-color-scheme: dark) {
      .fg {
        fill: #000;
      }
      .bg {
        fill: #fff;
      }
    }
  </style>
  <g clip-path="url(#a)">
    <path
      class="bg"
      d="M19 0H5a5 5 0 0 0-5 5v14a5 5 0 0 0 5 5h14a5 5 0 0 0 5-5V5a5 5 0 0 0-5-5Z"
    />
    <path
      class="fg"
      d="M17.68 8.98a1.98 1.98 0 1 0 0-3.96 1.98 1.98 0 0 0 0 3.96ZM8.94 5.53h2.24c.02 0 .03.01.03.03v.38s-.02.04-.04.04c-.58.01-.92.25-1.03.69-.05.22-.04.48.03.79.06.25.15.5.27.76 1.25 2.68 2.51 5.36 3.76 8.04 0 .02.01.05 0 .07l-1.47 3.75s-.02.03-.04.03h-.35s-.07-.02-.08-.05c-1.67-3.6-3.33-7.19-4.99-10.76-.3-.64-.6-1.28-.91-1.92a3.15 3.15 0 0 0-.45-.69c-.2-.24-.41-.41-.63-.51a1.93 1.93 0 0 0-.88-.19c-.04 0-.06-.03-.06-.06v-.38s.02-.03.04-.03h4.56v.01Z"
    />
  </g>
  <defs>
    <clipPath id="a"><path class="fg" d="M0 0h24v24H0z" /></clipPath>
  </defs>
</svg>

<svg width="24" height="24" viewBox="0 0 24 24" fill="none" xmlns="http://www.w3.org/2000/svg">
<g clip-path="url(#clip0_1_2)">
<path d="M19 0H5C2.23858 0 0 2.23858 0 5V19C0 21.7614 2.23858 24 5 24H19C21.7614 24 24 21.7614 24 19V5C24 2.23858 21.7614 0 19 0Z" fill="black"/>
<path d="M17.68 8.98C18.7735 8.98 19.66 8.09352 19.66 7C19.66 5.90648 18.7735 5.02 17.68 5.02C16.5865 5.02 15.7 5.90648 15.7 7C15.7 8.09352 16.5865 8.98 17.68 8.98Z" fill="white"/>
<path d="M8.94 5.53C9.69 5.53 10.43 5.53 11.18 5.53C11.2 5.53 11.21 5.54 11.21 5.56V5.94C11.21 5.94 11.19 5.98 11.17 5.98C10.59 5.99 10.25 6.23 10.14 6.67C10.09 6.89 10.1 7.15 10.17 7.46C10.23 7.71 10.32 7.96 10.44 8.22C11.69 10.9 12.95 13.58 14.2 16.26C14.2 16.28 14.21 16.31 14.2 16.33L12.73 20.08C12.73 20.08 12.71 20.11 12.69 20.11H12.34C12.34 20.11 12.27 20.09 12.26 20.06C10.59 16.46 8.93 12.87 7.27 9.3C6.97 8.66 6.67 8.02 6.36 7.38C6.24 7.13 6.09 6.9 5.91 6.69C5.71 6.45 5.5 6.28 5.28 6.18C5.02 6.05 4.73 5.99 4.4 5.99C4.36 5.99 4.34 5.96 4.34 5.93V5.55C4.34 5.55 4.36 5.52 4.38 5.52C5.9 5.52 7.42 5.52 8.94 5.52V5.53Z" fill="white"/>
</g>
<defs>
<clipPath id="clip0_1_2">
<rect width="24" height="24" fill="white"/>
</clipPath>
</defs>
</svg>
